svg/u1f388.svg

<svg viewBox="0 0 128 128" xmlns="http://www.w3.org/2000/svg">
  <defs/>
  <path d="M77.149,101.317 Q78.864,104.117 77.886,109.331 Q77.113,113.452 78.721,114.893 Q81.11,117.026 87.246,114.73 Q93.504,112.388 97.151,113.087 Q103.275,114.261 108.487,122.713 L105.933,124.287 Q101.414,116.959 96.586,116.033 Q93.766,115.493 88.297,117.54 Q84.534,118.948 82.654,119.106 Q79.255,119.391 76.719,117.127 Q73.853,114.559 74.937,108.778 Q75.702,104.699 74.591,102.883 Z" fill="#64B5F6"/>
  <path d="M74.5,106.88 L80.13,105.88 C81.69,105.61 82.73,104.13 82.46,102.57 C82.41,102.29 82.32,102.03 82.2,101.78 C80.38,98.18 77.94,94.92 75,92.16 C74.56,95.05 72.84,99.54 71.38,102.96 C70.76,104.41 71.44,106.08 72.89,106.7 C73.4,106.91 73.96,106.98 74.5,106.88 Z" fill="#F44336"/>
  <path d="M25.56,51.54 C33.14,83.3 64.22,97.75 75.68,95 C87.14,92.25 107.78,63 100.76,33.57 C95.79,12.8 74.93,0 54.16,4.97 C33.39,9.94 20.59,30.8 25.56,51.57 L25.56,51.54 Z" fill="#F44336"/>
  <path d="M73.43,98.11 L78.59,96.88 C80.22,96.49 81.23,94.86 80.84,93.23 C80.45,91.6 78.82,90.59 77.19,90.98 L72,92.21 C70.37,92.6 69.36,94.23 69.75,95.86 C70.14,97.49 71.77,98.5 73.4,98.11 L73.43,98.11 Z" fill="#C62828"/>
  <path d="M78.28,13.44 C74.21,10.96 68.38,9.31 65.08,13.99 C63.32,16.48 64.98,21.14 68.61,22.19 C74.75,23.98 75.82,26.19 77.07,27.98 C78.58,30.08 80.01,32.71 82.56,33.12 C85.11,33.53 86.56,31.61 86.45,27.91 C86.43,21.99 83.34,16.51 78.28,13.44 Z" fill="#FF847A"/>
</svg>

<svg viewBox="0 0 128 128" xmlns="http://www.w3.org/2000/svg">
  <g id="facial_expressions">
    <path d="M75.87,102.1c3,4.9-2.38,10.12,1.85,13.91 c7.84,7,17.44-12.05,29.49,7.49" fill="none" stroke="#64B5F6" stroke-miterlimit="10" stroke-width="3"/>
    <path d="M74.5,106.88l5.63-1c1.56-0.27,2.6-1.75,2.33-3.31c-0.05-0.28-0.14-0.54-0.26-0.79 c-1.82-3.6-4.26-6.86-7.2-9.62c-0.44,2.89-2.16,7.38-3.62,10.8c-0.62,1.45,0.06,3.12,1.51,3.74 C73.4,106.91,73.96,106.98,74.5,106.88z" fill="#F44336"/>
    <path d="M25.56,51.54C33.14,83.3,64.22,97.75,75.68,95s32.1-32,25.08-61.43C95.79,12.8,74.93,0,54.16,4.97 s-33.57,25.83-28.6,46.6L25.56,51.54z" fill="#F44336"/>
    <path d="M73.43,98.11l5.16-1.23c1.63-0.39,2.64-2.02,2.25-3.65s-2.02-2.64-3.65-2.25L72,92.21 c-1.63,0.39-2.64,2.02-2.25,3.65s2.02,2.64,3.65,2.25H73.43z" fill="#C62828"/>
    <path d="M78.28,13.44c-4.07-2.48-9.9-4.13-13.2,0.55c-1.76,2.49-0.1,7.15,3.53,8.2 c6.14,1.79,7.21,4,8.46,5.79c1.51,2.1,2.94,4.73,5.49,5.14s4-1.51,3.89-5.21C86.43,21.99,83.34,16.51,78.28,13.44z" fill="#FF847A"/>
  </g>
</svg>
